x-pack/platform/packages/shared/kbn-inference-endpoint-ui-common/src/components/providers/assets/images/anthropic.svg

<svg width="32" height="32" viewBox="0 0 32 32" fill="none" xmlns="http://www.w3.org/2000/svg">
<path d="M7.49367 20.6289L13.0015 17.5382L13.0937 17.2689L13.0015 17.12H12.7322L11.8106 17.0633L8.66329 16.9782L5.93418 16.8648L3.29013 16.723L2.6238 16.5813L2 15.759L2.0638 15.3478L2.6238 14.9722L3.42481 15.043L5.19696 15.1635L7.85519 15.3478L9.78329 15.4613L12.64 15.759H13.0937L13.1575 15.5747L13.0015 15.4613L12.881 15.3478L10.1306 13.4835L7.15342 11.5129L5.59392 10.3787L4.75038 9.80456L4.32506 9.26582L4.14076 8.08911L4.90633 7.24557L5.93418 7.31646L6.19646 7.38734L7.23848 8.18835L9.4643 9.91089L12.3706 12.0516L12.7959 12.4061L12.9661 12.2856L12.9873 12.2005L12.7959 11.8815L11.2152 9.02481L9.5281 6.11848L8.77671 4.91342L8.57823 4.19038C8.50734 3.89266 8.45772 3.64456 8.45772 3.33975L9.32962 2.15595L9.81165 2L10.9742 2.15595L11.4633 2.58127L12.1863 4.23291L13.3559 6.83443L15.1706 10.3716L15.7023 11.4208L15.9858 12.3919L16.0922 12.6896H16.2765V12.5195L16.4253 10.5276L16.7018 8.08203L16.9711 4.93468L17.0633 4.04861L17.5028 2.98532L18.3747 2.41114L19.0552 2.73722L19.6152 3.53823L19.5372 4.0557L19.2041 6.21772L18.5519 9.60608L18.1266 11.8744H18.3747L18.6582 11.5909L19.8066 10.0668L21.7347 7.65671L22.5853 6.69975L23.5777 5.64354L24.2157 5.14025H25.4208L26.3068 6.45873L25.9099 7.81975L24.6694 9.39342L23.6415 10.7261L22.1671 12.7109L21.2456 14.2987L21.3306 14.4263L21.5504 14.4051L24.882 13.6962L26.6825 13.3701L28.8304 13.0015L29.8015 13.4552L29.9078 13.9159L29.5251 14.8587L27.2284 15.4258L24.5347 15.9646L20.5225 16.9144L20.4729 16.9499L20.5296 17.0208L22.3372 17.1909L23.1099 17.2334H25.0025L28.5256 17.4957L29.4471 18.1053L30 18.8496L29.9078 19.4167L28.4901 20.1397L26.5762 19.6861L22.1104 18.6228L20.5792 18.24H20.3666V18.3676L21.6425 19.6152L23.9818 21.7276L26.9094 24.4496L27.0582 25.123L26.6825 25.6547L26.2856 25.598L23.7124 23.6628L22.72 22.7909L20.4729 20.8982H20.3241V21.0967L20.8415 21.8552L23.5777 25.9666L23.7195 27.2284L23.521 27.6395L22.8122 27.8876L22.0324 27.7458L20.4304 25.4987L18.7787 22.9681L17.4461 20.6997L17.283 20.7919L16.4962 29.2628L16.1276 29.6952L15.277 30.0213L14.5681 29.4825L14.1924 28.6106L14.5681 26.8881L15.0218 24.641L15.3904 22.8547L15.7235 20.6359L15.922 19.8987L15.9078 19.8491L15.7448 19.8704L14.0719 22.1671L11.5271 25.6051L9.51392 27.76L9.0319 27.9514L8.19544 27.519L8.27342 26.7463L8.74127 26.0587L11.5271 22.5144L13.2071 20.317L14.2916 19.0481L14.2846 18.8638H14.2208L6.82025 23.6699L5.50177 23.84L4.93468 23.3084L5.00557 22.4365L5.27494 22.1529L7.50076 20.6218L7.49367 20.6289Z" fill="#D97757"/>
</svg>

<svg xmlns="http://www.w3.org/2000/svg" width="32" height="32" fill="none"><path fill="#D97757" d="m7.494 20.629 5.508-3.09.092-.27-.092-.149h-.27l-.921-.057-3.148-.085-2.729-.113-2.644-.142-.666-.142L2 15.76l.064-.411.56-.376.8.071 1.773.12 2.658.185 1.928.113 2.857.298h.454l.064-.184-.156-.114-.121-.113-2.75-1.865-2.978-1.97-1.56-1.134-.843-.574-.425-.54-.184-1.176.765-.843 1.028.07.262.071 1.042.801 2.226 1.723 2.907 2.14.425.355.17-.12.021-.085-.191-.32-1.58-2.856-1.688-2.907-.751-1.205-.199-.723a3.5 3.5 0 0 1-.12-.85l.872-1.184L9.812 2l1.162.156.49.425.722 1.652 1.17 2.601 1.815 3.538.531 1.049.284.97.106.299h.184v-.17l.15-1.992.276-2.446.27-3.147.091-.886.44-1.064.872-.574.68.326.56.801-.078.518-.333 2.162-.652 3.388-.425 2.268h.248l.283-.283 1.149-1.524 1.928-2.41.85-.957.993-1.056.638-.504h1.205l.886 1.319-.397 1.36-1.24 1.574-1.029 1.333-1.474 1.985-.921 1.588.085.127.22-.02 3.331-.71 1.8-.326 2.148-.368.972.453.106.46-.383.944-2.297.567-2.693.539-4.012.95-.05.035.057.07 1.807.17.773.043h1.893l3.523.263.921.61.553.744-.092.567-1.418.723-1.914-.454-4.466-1.063-1.53-.383h-.213v.128l1.275 1.247 2.34 2.113 2.927 2.722.15.673-.377.532-.396-.057-2.574-1.935-.992-.872-2.247-1.893h-.149v.199l.517.758 2.737 4.112.142 1.261-.199.412-.709.248-.78-.142-1.602-2.247-1.651-2.53-1.333-2.27-.163.093-.787 8.47-.368.433-.851.326-.709-.538-.376-.872.376-1.723.454-2.247.368-1.786.333-2.22.199-.736-.014-.05-.163.021-1.673 2.297-2.545 3.438-2.013 2.155-.482.191-.837-.432.078-.773.468-.687 2.786-3.545 1.68-2.197 1.085-1.269-.007-.184h-.064l-7.4 4.806-1.32.17-.566-.532.07-.872.27-.283L7.5 20.622z"/></svg>
